X: 2379
M: C
L: 1/8
K: Bb
(udc) |:\
[1,3 fcAc fcAc | f=efg f_edc :|\
[2,4 fgag fedc | B2d2B2 :|
(uba) |:\
geBG EGBg | fdBF DFBf |\
[1,3 eAgf eAgf | dBgf dBba :|\
[24 =efag f_edc | B2d2"_D.C."B2 :|


